X:400
T: Bolger's
S: "Music from Ireland 2" (Bulmer & Sharpley)
R: hornpipe
Z: B.Black
M: 4/4
L: 1/8
K: A
(3efg|a2 gf e2 cB|AGAB cEE^D|EA A2 cA A2|dBBA B2 ed|
a2 gf e2 cB|AGAB cE E2|EFGA Bagf|ecdB A2 :|
ed|cEAc eaga|fAde fdaf|eagf ecAc|dBBA B2 ed|
cEAc eaga|fAde fdaf|eagf ecdB|A2 c2 A2 :|
